2 Export/Icons/Rounded/Task.svg

<svg xmlns="http://www.w3.org/2000/svg" xmlns:xlink="http://www.w3.org/1999/xlink" width="24" height="24" viewBox="0 0 24 24">
  <defs>
    <path id="task-a" d="M19 4h-4.18C14.4 2.84 13.3 2 12 2c-1.3 0-2.4.84-2.82 2H5c-1.1 0-2 .9-2 2v14c0 1.1.9 2 2 2h14c1.1 0 2-.9 2-2V6c0-1.1-.9-2-2-2zm-7 0c.55 0 1 .45 1 1s-.45 1-1 1-1-.45-1-1 .45-1 1-1zm1 14H8c-.55 0-1-.45-1-1s.45-1 1-1h5c.55 0 1 .45 1 1s-.45 1-1 1zm3-4H8c-.55 0-1-.45-1-1s.45-1 1-1h8c.55 0 1 .45 1 1s-.45 1-1 1zm0-4H8c-.55 0-1-.45-1-1s.45-1 1-1h8c.55 0 1 .45 1 1s-.45 1-1 1z"/>
  </defs>
  <g fill="none" fill-rule="evenodd">
    <polygon points="0 0 24 0 24 24 0 24"/>
    <mask id="task-b" fill="#fff">
      <use xlink:href="#task-a"/>
    </mask>
    <use fill="#000" xlink:href="#task-a"/>
    <g fill="#000" mask="url(#task-b)">
      <rect width="24" height="24"/>
    </g>
  </g>
</svg>

<svg xmlns="http://www.w3.org/2000/svg" xmlns:xlink="http://www.w3.org/1999/xlink" width="24" height="24" viewBox="0 0 24 24">
  <defs>
    <path id="task-a" d="M19,4 L14.82,4 C14.4,2.84 13.3,2 12,2 C10.7,2 9.6,2.84 9.18,4 L5,4 C3.9,4 3,4.9 3,6 L3,20 C3,21.1 3.9,22 5,22 L19,22 C20.1,22 21,21.1 21,20 L21,6 C21,4.9 20.1,4 19,4 Z M12,4 C12.55,4 13,4.45 13,5 C13,5.55 12.55,6 12,6 C11.45,6 11,5.55 11,5 C11,4.45 11.45,4 12,4 Z M13,18 L8,18 C7.45,18 7,17.55 7,17 C7,16.45 7.45,16 8,16 L13,16 C13.55,16 14,16.45 14,17 C14,17.55 13.55,18 13,18 Z M16,14 L8,14 C7.45,14 7,13.55 7,13 C7,12.45 7.45,12 8,12 L16,12 C16.55,12 17,12.45 17,13 C17,13.55 16.55,14 16,14 Z M16,10 L8,10 C7.45,10 7,9.55 7,9 C7,8.45 7.45,8 8,8 L16,8 C16.55,8 17,8.45 17,9 C17,9.55 16.55,10 16,10 Z"/>
  </defs>
  <g fill="none" fill-rule="evenodd">
    <polygon points="0 0 24 0 24 24 0 24"/>
    <mask id="task-b" fill="#fff">
      <use xlink:href="#task-a"/>
    </mask>
    <use fill="#000" xlink:href="#task-a"/>
    <g fill="#000" mask="url(#task-b)">
      <rect width="24" height="24"/>
    </g>
  </g>
</svg>
